outputs/icons/action/document_round.svg

<svg xmlns="http://www.w3.org/2000/svg" width="1200" height="1200" fill="none"><g clip-path="url(#a)"><path fill="#000" d="M729.5 129.5c-19-19-44.5-29.5-71-29.5H300c-55 0-100 45-100 100v800c0 55 44.5 100 99.5 100H900c55 0 100-45 100-100V441.5c0-26.5-10.5-52-29.5-70.5zM750 900H450c-27.5 0-50-22.5-50-50s22.5-50 50-50h300c27.5 0 50 22.5 50 50s-22.5 50-50 50m0-200H450c-27.5 0-50-22.5-50-50s22.5-50 50-50h300c27.5 0 50 22.5 50 50s-22.5 50-50 50M650 400V175l275 275H700c-27.5 0-50-22.5-50-50"/></g><defs><clipPath id="a"><path fill="#fff" d="M0 0h1200v1200H0z"/></clipPath></defs></svg>

<svg width="1200" height="1200" viewBox="0 0 1200 1200" fill="none" xmlns="http://www.w3.org/2000/svg"><g clip-path="url(#clip0_223_1907)"><path d="M729.5 129.5C710.5 110.5 685 100 658.5 100H300C245 100 200 145 200 200V1000C200 1055 244.5 1100 299.5 1100H900C955 1100 1000 1055 1000 1000V441.5C1000 415 989.5 389.5 970.5 371L729.5 129.5ZM750 900H450C422.5 900 400 877.5 400 850C400 822.5 422.5 800 450 800H750C777.5 800 800 822.5 800 850C800 877.5 777.5 900 750 900ZM750 700H450C422.5 700 400 677.5 400 650C400 622.5 422.5 600 450 600H750C777.5 600 800 622.5 800 650C800 677.5 777.5 700 750 700ZM650 400V175L925 450H700C672.5 450 650 427.5 650 400Z" fill="#1D1E23"/></g><defs><clipPath id="clip0_223_1907"><path width="24" fill="white" d="M0 0H1200V1200H0V0z"/></clipPath></defs></svg>
